pro/src/icons/stroke-profil.svg

<svg width="48" height="48" fill="none" xmlns="http://www.w3.org/2000/svg">
    <path fill-rule="evenodd" clip-rule="evenodd" id="icon"
          d="M24.007 4C21.9242 4 20.0936 5.04503 19.0093 6.64972L19.0086 6.65079C18.3658 7.59935 17.9873 8.7548 17.9873 10V15C17.9873 18.3154 20.6761 21 24.007 21C27.3379 21 30.0267 18.3154 30.0267 15V10C30.0267 6.68457 27.3379 4 24.007 4ZM17.3515 5.52974C18.7945 3.39474 21.236 2 24.007 2C28.4384 2 32.0276 5.57543 32.0276 10V15C32.0276 19.4246 28.4384 23 24.007 23C19.5756 23 15.9864 19.4246 15.9864 15V10C15.9864 8.34543 16.4902 6.80109 17.3515 5.52974ZM7.53488 37.9256C9.45257 30.6381 16.0789 25.25 23.9969 25.25C31.9143 25.25 38.5511 30.6374 40.469 37.9256C40.5557 38.255 40.4687 38.6058 40.2382 38.8566C39.084 40.112 37.7814 41.2437 36.3505 42.2089C35.8924 42.5178 35.2706 42.3972 34.9615 41.9394C34.6525 41.4816 34.7732 40.86 35.2312 40.5511C36.3741 39.7802 37.4297 38.89 38.3845 37.9061C36.5174 31.7441 30.7898 27.25 23.9969 27.25C17.2051 27.25 11.4866 31.7431 9.61965 37.9053C13.2685 41.6563 18.353 44 24.007 44C25.6118 44 27.1592 43.8096 28.6506 43.4569C29.1883 43.3297 29.7273 43.6623 29.8545 44.1998C29.9818 44.7372 29.649 45.276 29.1113 45.4031C27.4737 45.7904 25.7718 46 24.007 46C17.5653 46 11.797 43.2322 7.76649 38.8574C7.53541 38.6066 7.44811 38.2554 7.53488 37.9256ZM18.9578 32.588C19.4374 32.3138 19.6038 31.7028 19.3294 31.2235C19.055 30.7441 18.4438 30.5778 17.9642 30.852C15.6641 32.1673 13.7978 34.2117 12.7271 36.7172C12.5101 37.2251 12.7461 37.8127 13.2542 38.0296C13.7623 38.2466 14.3502 38.0107 14.5672 37.5028C15.4622 35.4083 17.0258 33.6928 18.9578 32.588Z"
          fill="currentColor"/>
</svg>

<svg xmlns="http://www.w3.org/2000/svg" width="48" height="48" fill="none"><path id="icon" fill="currentColor" fill-rule="evenodd" d="M24.007 4a6.01 6.01 0 0 0-4.998 2.65A5.96 5.96 0 0 0 17.987 10v5c0 3.315 2.69 6 6.02 6s6.02-2.685 6.02-6v-5c0-3.315-2.69-6-6.02-6m-6.655 1.53A8.01 8.01 0 0 1 24.007 2c4.431 0 8.02 3.575 8.02 8v5c0 4.425-3.589 8-8.02 8s-8.02-3.575-8.02-8v-5c0-1.655.503-3.199 1.365-4.47M7.535 37.926c1.918-7.288 8.544-12.676 16.462-12.676s14.554 5.387 16.472 12.676a1 1 0 0 1-.23.93 22 22 0 0 1-3.889 3.353 1 1 0 0 1-1.119-1.658 20 20 0 0 0 3.154-2.645C36.517 31.744 30.79 27.25 23.997 27.25c-6.792 0-12.51 4.493-14.377 10.655C13.269 41.656 18.353 44 24.007 44a20 20 0 0 0 4.644-.543 1 1 0 1 1 .46 1.946 22 22 0 0 1-5.104.597c-6.442 0-12.21-2.768-16.24-7.143a1 1 0 0 1-.232-.931m11.423-5.338a1 1 0 1 0-.994-1.736 12.37 12.37 0 0 0-5.237 5.865 1 1 0 1 0 1.84.786 10.37 10.37 0 0 1 4.39-4.915" clip-rule="evenodd"/></svg>
